icons/icn_linkedin.svg

<svg width="24" xmlns="http://www.w3.org/2000/svg" height="24" id="screenshot-bfd96ead-884f-806b-8006-9b037751d8fe" viewBox="0 0 24 24" xmlns:xlink="http://www.w3.org/1999/xlink" fill="none" version="1.1"><g id="shape-bfd96ead-884f-806b-8006-9b037751d8fe"><g class="frame-container-wrapper"><g class="frame-container-blur"><g class="frame-container-shadows"><g fill="none"><g class="fills" id="fills-bfd96ead-884f-806b-8006-9b037751d8fe"><rect rx="0" ry="0" x="0" y="0" width="24" height="24" transform="matrix(1, 0, 0, 1, 0, 0)" class="frame-background"/></g><g class="frame-children"><g id="shape-bfd96ead-884f-806b-8006-9b02909a3469"><g class="fills" id="fills-bfd96ead-884f-806b-8006-9b02909a3469"><rect rx="4" ry="4" x="0" y="0" transform="matrix(1, 0, 0, 1, 0, 0)" width="24" height="24" style="fill: rgb(0, 0, 0); fill-opacity: 1;"/></g></g><g id="shape-bfd96ead-884f-806b-8006-9affaff9585b"><g class="fills" id="fills-bfd96ead-884f-806b-8006-9affaff9585b"><path d="M6.500048637390137,17.136123657226562L8.944140434265137,17.136123657226562L8.944140434265137,9.240982055664062L6.500048637390137,9.240982055664062L6.500048637390137,17.136123657226562" style="fill-rule: nonzero; stroke: none; stroke-width: 0.133333; fill: rgb(255, 255, 255); fill-opacity: 1;"/></g></g><g id="shape-bfd96ead-884f-806b-8006-9affaff9585c"><g class="fills" id="fills-bfd96ead-884f-806b-8006-9affaff9585c"><path d="M7.645556449890137,7.9140777587890625C8.443896293640137,7.9140777587890625,9.090624809265137,7.2612457275390625,9.090624809265137,6.4565582275390625C9.090624809265137,5.6523590087890625,8.443896293640137,5.0000152587890625,7.645556449890137,5.0000152587890625C6.846972465515137,5.0000152587890625,6.199999809265137,5.6523590087890625,6.199999809265137,6.4565582275390625C6.199999809265137,7.2612457275390625,6.846972465515137,7.9140777587890625,7.645556449890137,7.9140777587890625" style="fill-rule: nonzero; stroke: none; stroke-width: 0.133333; fill: rgb(255, 255, 255); fill-opacity: 1;"/></g></g><g id="shape-bfd96ead-884f-806b-8006-9affaff98f1b"><g class="fills" id="fills-bfd96ead-884f-806b-8006-9affaff98f1b"><path d="M12.844286918640137,12.991592407226562C12.844286918640137,11.881607055664062,13.355273246765137,11.220352172851562,14.333788871765137,11.220352172851562C15.231982231140137,11.220352172851562,15.663866996765137,11.855239868164062,15.663866996765137,12.991592407226562C15.663866996765137,14.128433227539062,15.663866996765137,17.136123657226562,15.663866996765137,17.136123657226562L18.096240997314453,17.136123657226562C18.096240997314453,17.136123657226562,18.096240997314453,14.251968383789062,18.096240997314453,12.137100219726562C18.096240997314453,10.022354125976562,16.897754669189453,9.000015258789062,15.223437309265137,9.000015258789062C13.548876762390137,9.000015258789062,12.844286918640137,10.304092407226562,12.844286918640137,10.304092407226562L12.844286918640137,9.240982055664062L10.500048637390137,9.240982055664062L10.500048637390137,17.136123657226562L12.844286918640137,17.136123657226562C12.844286918640137,17.136123657226562,12.844286918640137,14.207534790039062,12.844286918640137,12.991592407226562" style="fill-rule: nonzero; stroke: none; stroke-width: 0.133333; fill: rgb(255, 255, 255); fill-opacity: 1;"/></g></g></g></g></g></g></g></g></svg>

<svg fill="none" viewBox="0 0 24 24"><g class="frame-container-wrapper"><g class="frame-container-blur"><g class="frame-container-shadows"><g class="fills"><rect width="24" height="24" class="frame-background" rx="0" ry="0"/></g><g class="frame-children"><rect width="24" height="24" fill="#000" class="fills" rx="4" ry="4"/><path fill="#fff" d="M6.5 17.1361h2.4441V9.241h-2.444v7.8951M7.6456 7.914c.7983 0 1.445-.6528 1.445-1.4574C9.0906 5.6524 8.444 5 7.6456 5 6.847 5 6.2 5.6524 6.2 6.4566c0 .8046.647 1.4575 1.4456 1.4575M12.8443 12.9916c0-1.11.511-1.7712 1.4895-1.7712.8982 0 1.33.6348 1.33 1.7712v4.1445h2.4324v-4.999c0-2.1147-1.1984-3.137-2.8728-3.137-1.6745 0-2.3791 1.304-2.3791 1.304V9.241H10.5v7.8951h2.3443v-4.1445" class="fills"/></g></g></g></g></svg>
